X:1
T:Old Joe [2]
N:From the playing of Bob Walters (1889-1960, Burt County,
N:Nebraska).
M:C|
L:1/8
R:Reel
D:Univ. of Missouri, Bob Walters - Old Time Fiddlers Repertory (11976)
D: https://www.slippery-hill.com/recording/old-joe-1
Z:Transcribed by Andrew Kuntz
K:C
AB|[E2c2]cd cAGc|AGAB cBcd|eg2^f g2 ag|egab aged|
c2 cd cAGc|AGAB cBcd|egab agef|1gedB [E2c2]:|2gedB [E4c4]||
|:A,4 C3D|EDCE DCA,G,|A,4 C4|EDCE D2E2|
A,4 C3D|EDCE DCA,C|G,2 c2 cAGF|EDCB, A,4:|

